common/src/main/resources/icons/debugger/killProcess.svg

<svg xmlns="http://www.w3.org/2000/svg" width="16" height="16" data-big="true" viewBox="0 0 24 24"><path fill="#FFCA28" d="M12 2a9 9 0 0 0-9 9 8.99 8.99 0 0 0 4 7.47V22h2v-3h2v3h2v-3h2v3h2v-3.54c2.47-1.65 4-4.46 4-7.46a9 9 0 0 0-9-9m-4 9a2 2 0 0 1 2 2 2 2 0 0 1-2 2 2 2 0 0 1-2-2 2 2 0 0 1 2-2m8 0a2 2 0 0 1 2 2 2 2 0 0 1-2 2 2 2 0 0 1-2-2 2 2 0 0 1 2-2m-4 3 1.5 3h-3z"/></svg>

<!--
  - The MIT License (MIT)
  -
  - Copyright (c) 2015-2024 Elior "Mallowigi" Boukhobza
  -
  - Permission is hereby granted, free of charge, to any person obtaining a copy
  - of this software and associated documentation files (the "Software"), to deal
  - in the Software without restriction, including without limitation the rights
  - to use, copy, modify, merge, publish, distribute, sublicense, and/or sell
  - copies of the Software, and to permit persons to whom the Software is
  - furnished to do so, subject to the following conditions:
  -
  - The above copyright notice and this permission notice shall be included in all
  - copies or substantial portions of the Software.
  -
  - THE SOFTWARE IS PROVIDED "AS IS", WITHOUT WARRANTY OF ANY KIND, EXPRESS OR
  - IMPLIED, INCLUDING BUT NOT LIMITED TO THE WARRANTIES OF MERCHANTABILITY,
  - FITNESS FOR A PARTICULAR PURPOSE AND NONINFRINGEMENT. IN NO EVENT SHALL THE
  - AUTHORS OR COPYRIGHT HOLDERS BE LIABLE FOR ANY CLAIM, DAMAGES OR OTHER
  - LIABILITY, WHETHER IN AN ACTION OF CONTRACT, TORT OR OTHERWISE, ARISING FROM,
  - OUT OF OR IN CONNECTION WITH THE SOFTWARE OR THE USE OR OTHER DEALINGS IN THE
  - SOFTWARE.
  -->


<svg data-big="true" xmlns="http://www.w3.org/2000/svg" version="1.1" width="16px" height="16px" viewBox="0 0 24 24">
  <path fill="#FFCA28"
        d="M12,2A9,9 0 0,0 3,11C3,14.03 4.53,16.82 7,18.47V22H9V19H11V22H13V19H15V22H17V18.46C19.47,16.81 21,14 21,11A9,9 0 0,0 12,2M8,11A2,2 0 0,1 10,13A2,2 0 0,1 8,15A2,2 0 0,1 6,13A2,2 0 0,1 8,11M16,11A2,2 0 0,1 18,13A2,2 0 0,1 16,15A2,2 0 0,1 14,13A2,2 0 0,1 16,11M12,14L13.5,17H10.5L12,14Z"/>
</svg>
